flaticon/medical/kneecap.svg

<svg xmlns="http://www.w3.org/2000/svg" width="32" height="32" viewBox="0 0 24 24">
    <path d="M 24 12 C 24 5.652344 19.042969 0.441406 12.796875 0.03125 L 12.792969 0.0273438 L 12.644531 0.0195312 C 12.644531 0.0195312 12.640625 0.0195312 12.640625 0.0195312 C 12.429688 0.0078125 12.214844 0 12 0 C 11.695312 0 11.394531 0.015625 11.09375 0.0390625 C 11.050781 0.0390625 11.003906 0.0429688 10.960938 0.046875 C 7 0.390625 3.585938 2.660156 1.660156 5.917969 C 1.652344 5.933594 1.644531 5.949219 1.632812 5.964844 C 1.324219 6.492188 1.058594 7.042969 0.832031 7.621094 C 0.816406 7.65625 0.804688 7.6875 0.789062 7.722656 C 0.679688 8.007812 0.585938 8.292969 0.496094 8.585938 C 0.496094 8.59375 0.492188 8.605469 0.488281 8.613281 L 0.414062 8.859375 L 0.417969 8.859375 C 0.148438 9.863281 0 10.914062 0 12 C 0 15.335938 1.367188 18.355469 3.570312 20.53125 L 3.570312 20.539062 L 3.730469 20.691406 C 3.785156 20.742188 3.84375 20.792969 3.902344 20.84375 C 3.925781 20.867188 3.949219 20.890625 3.972656 20.910156 C 4.09375 21.019531 4.214844 21.125 4.339844 21.230469 C 4.363281 21.246094 4.382812 21.265625 4.40625 21.28125 C 4.535156 21.390625 4.664062 21.492188 4.800781 21.59375 C 4.816406 21.605469 4.835938 21.617188 4.851562 21.632812 C 4.992188 21.734375 5.132812 21.835938 5.273438 21.933594 C 5.289062 21.941406 5.300781 21.953125 5.316406 21.960938 C 5.460938 22.058594 5.613281 22.15625 5.761719 22.25 C 5.777344 22.257812 5.789062 22.261719 5.800781 22.269531 C 5.953125 22.363281 6.105469 22.453125 6.261719 22.539062 C 6.277344 22.542969 6.289062 22.550781 6.304688 22.558594 C 6.457031 22.644531 6.613281 22.722656 6.773438 22.800781 C 6.789062 22.808594 6.808594 22.816406 6.828125 22.828125 C 6.980469 22.898438 7.132812 22.96875 7.289062 23.035156 C 7.316406 23.046875 7.339844 23.058594 7.367188 23.070312 C 7.515625 23.128906 7.664062 23.191406 7.8125 23.246094 C 7.847656 23.257812 7.886719 23.273438 7.921875 23.285156 C 8.0625 23.335938 8.203125 23.382812 8.347656 23.429688 C 8.394531 23.445312 8.4375 23.460938 8.484375 23.472656 C 8.621094 23.515625 8.753906 23.554688 8.890625 23.589844 C 8.945312 23.605469 9 23.621094 9.058594 23.632812 C 9.183594 23.667969 9.3125 23.695312 9.441406 23.722656 C 9.507812 23.738281 9.570312 23.753906 9.636719 23.765625 C 9.757812 23.789062 9.882812 23.8125 10.007812 23.832031 C 10.078125 23.84375 10.148438 23.855469 10.222656 23.867188 C 10.34375 23.886719 10.464844 23.898438 10.589844 23.914062 C 10.660156 23.921875 10.734375 23.933594 10.808594 23.941406 C 10.941406 23.953125 11.074219 23.960938 11.207031 23.972656 C 11.269531 23.976562 11.335938 23.980469 11.402344 23.984375 C 11.601562 23.996094 11.800781 24 12 24 C 12.199219 24 12.398438 23.996094 12.59375 23.984375 C 12.664062 23.980469 12.730469 23.976562 12.800781 23.96875 C 12.929688 23.960938 13.054688 23.953125 13.179688 23.941406 C 13.261719 23.933594 13.34375 23.921875 13.421875 23.914062 C 13.535156 23.898438 13.652344 23.886719 13.765625 23.867188 C 13.847656 23.855469 13.925781 23.84375 14.007812 23.828125 C 14.121094 23.808594 14.230469 23.789062 14.34375 23.769531 C 14.421875 23.753906 14.496094 23.734375 14.574219 23.71875 C 14.6875 23.695312 14.804688 23.667969 14.917969 23.640625 C 14.988281 23.621094 15.058594 23.601562 15.128906 23.582031 C 15.246094 23.550781 15.367188 23.519531 15.488281 23.480469 C 15.546875 23.464844 15.609375 23.445312 15.667969 23.425781 C 15.796875 23.382812 15.925781 23.339844 16.050781 23.292969 C 16.101562 23.277344 16.152344 23.257812 16.199219 23.238281 C 16.335938 23.1875 16.472656 23.136719 16.605469 23.078125 C 16.644531 23.0625 16.683594 23.046875 16.722656 23.03125 C 16.867188 22.96875 17.007812 22.902344 17.152344 22.835938 C 17.179688 22.824219 17.207031 22.808594 17.234375 22.796875 C 17.386719 22.722656 17.535156 22.644531 17.683594 22.566406 C 17.699219 22.558594 17.71875 22.546875 17.734375 22.539062 C 17.890625 22.453125 18.046875 22.363281 18.199219 22.269531 C 18.210938 22.265625 18.21875 22.257812 18.226562 22.253906 C 18.386719 22.15625 18.542969 22.058594 18.695312 21.953125 C 18.699219 21.949219 18.703125 21.949219 18.707031 21.945312 C 18.863281 21.839844 19.019531 21.730469 19.171875 21.617188 C 19.171875 21.613281 19.175781 21.613281 19.175781 21.613281 C 19.328125 21.496094 19.480469 21.378906 19.628906 21.257812 C 19.820312 21.097656 20.011719 20.933594 20.195312 20.761719 L 20.332031 20.636719 L 20.328125 20.625 C 22.589844 18.441406 24 15.382812 24 12 Z M 20.308594 12.007812 L 20.113281 12.800781 C 16.757812 13.398438 10.234375 14.5625 5.121094 15.484375 C 5.34375 14.933594 5.546875 14.472656 5.703125 14.132812 L 8.957031 13.222656 L 10.859375 13.542969 C 10.878906 13.546875 10.902344 13.550781 10.925781 13.550781 C 11.117188 13.550781 11.285156 13.410156 11.320312 13.21875 C 11.355469 13 11.210938 12.792969 10.992188 12.753906 L 9.675781 12.53125 L 10.050781 12.0625 C 10.1875 11.890625 10.160156 11.636719 9.988281 11.5 C 9.8125 11.363281 9.5625 11.390625 9.425781 11.5625 L 8.707031 12.460938 L 5.519531 13.355469 L 4.671875 12.609375 C 6.191406 11.894531 8.703125 10.828125 11.347656 9.707031 C 14.328125 8.441406 17.40625 7.136719 19.121094 6.296875 C 20.351562 7.90625 20.808594 10.015625 20.308594 12.007812 Z M 19.515625 20.296875 C 18.722656 21.015625 17.828125 21.621094 16.855469 22.089844 C 16.847656 22.09375 16.84375 22.097656 16.835938 22.101562 C 16.683594 22.171875 16.535156 22.242188 16.378906 22.308594 C 16.351562 22.320312 16.324219 22.328125 16.296875 22.339844 C 16.164062 22.398438 16.03125 22.449219 15.894531 22.5 C 15.851562 22.515625 15.808594 22.53125 15.765625 22.546875 C 15.644531 22.589844 15.523438 22.632812 15.402344 22.671875 C 15.34375 22.6875 15.289062 22.707031 15.234375 22.722656 C 15.121094 22.757812 15.007812 22.789062 14.898438 22.820312 C 14.832031 22.835938 14.765625 22.851562 14.703125 22.867188 C 14.597656 22.894531 14.488281 22.917969 14.382812 22.941406 C 14.3125 22.957031 14.238281 22.972656 14.167969 22.988281 C 14.066406 23.007812 13.960938 23.027344 13.859375 23.042969 C 13.78125 23.054688 13.707031 23.070312 13.632812 23.082031 C 13.527344 23.097656 13.421875 23.109375 13.3125 23.121094 C 13.242188 23.128906 13.167969 23.140625 13.09375 23.144531 C 12.976562 23.15625 12.859375 23.164062 12.738281 23.171875 C 12.675781 23.175781 12.613281 23.183594 12.550781 23.1875 C 12.367188 23.195312 12.183594 23.199219 12 23.199219 C 11.816406 23.199219 11.632812 23.195312 11.449219 23.1875 C 11.386719 23.183594 11.328125 23.175781 11.265625 23.171875 C 11.144531 23.164062 11.023438 23.15625 10.902344 23.144531 C 10.832031 23.136719 10.761719 23.128906 10.695312 23.121094 C 10.582031 23.109375 10.46875 23.09375 10.359375 23.078125 C 10.289062 23.070312 10.222656 23.054688 10.152344 23.042969 C 10.039062 23.027344 9.929688 23.007812 9.816406 22.984375 C 9.753906 22.972656 9.691406 22.957031 9.625 22.945312 C 9.511719 22.917969 9.394531 22.894531 9.28125 22.863281 C 9.222656 22.851562 9.167969 22.835938 9.109375 22.820312 C 8.988281 22.789062 8.867188 22.753906 8.746094 22.71875 C 8.699219 22.703125 8.652344 22.6875 8.605469 22.671875 C 8.472656 22.632812 8.34375 22.585938 8.214844 22.542969 C 8.179688 22.527344 8.144531 22.515625 8.109375 22.5 C 7.96875 22.449219 7.828125 22.394531 7.691406 22.335938 C 7.667969 22.328125 7.644531 22.316406 7.621094 22.308594 C 7.46875 22.242188 7.320312 22.175781 7.171875 22.105469 C 7.160156 22.097656 7.148438 22.09375 7.136719 22.089844 C 6.152344 21.609375 5.246094 20.992188 4.445312 20.261719 C 4.597656 19.550781 4.804688 18.792969 5.058594 18 L 19.414062 18 Z M 4.480469 17.199219 C 4.570312 16.9375 4.664062 16.667969 4.769531 16.390625 C 4.773438 16.378906 4.777344 16.371094 4.78125 16.359375 C 7.082031 15.945312 9.710938 15.472656 12.226562 15.023438 L 18.296875 17.199219 Z M 20.019531 13.628906 L 20.171875 17.023438 L 13.808594 14.738281 C 16.222656 14.308594 18.433594 13.914062 20.019531 13.628906 Z M 18.574219 5.671875 C 16.847656 6.503906 13.898438 7.753906 11.035156 8.96875 C 10.5625 9.167969 10.097656 9.367188 9.640625 9.5625 L 16.125 3.277344 L 18.488281 5.585938 C 18.519531 5.613281 18.546875 5.644531 18.574219 5.671875 Z M 7.671875 10.355469 C 7.652344 10.375 7.640625 10.398438 7.625 10.421875 C 6.15625 11.054688 4.886719 11.613281 4.019531 12.035156 L 3 11.136719 L 13.308594 4.894531 Z M 3.085938 10.148438 L 1.328125 8.597656 C 1.332031 8.589844 1.335938 8.578125 1.339844 8.570312 C 1.421875 8.308594 1.515625 8.054688 1.617188 7.804688 C 1.628906 7.777344 1.640625 7.75 1.648438 7.726562 C 1.753906 7.472656 1.867188 7.226562 1.988281 6.988281 C 2.003906 6.953125 2.023438 6.921875 2.039062 6.886719 C 3.789062 3.503906 7.199219 1.179688 11.042969 0.84375 C 11.085938 0.839844 11.128906 0.835938 11.171875 0.835938 C 11.445312 0.8125 11.722656 0.800781 12 0.800781 C 12.152344 0.800781 12.304688 0.804688 12.453125 0.8125 L 14.773438 3.074219 Z M 0.800781 12 C 0.800781 11.125 0.902344 10.273438 1.09375 9.457031 L 2.371094 10.582031 L 1.652344 11.015625 L 3.894531 12.988281 L 4.929688 13.902344 C 4.730469 14.335938 4.472656 14.9375 4.195312 15.652344 L 4.148438 15.773438 C 4.042969 16.042969 3.9375 16.332031 3.832031 16.628906 C 3.820312 16.667969 3.804688 16.707031 3.789062 16.746094 C 3.707031 16.984375 3.625 17.226562 3.542969 17.476562 L 3.375 18 L 4.222656 18 C 4.050781 18.550781 3.902344 19.082031 3.777344 19.59375 C 1.929688 17.597656 0.800781 14.929688 0.800781 12 Z M 20.214844 18 L 21.015625 18 L 20.804688 13.320312 L 20.976562 12.648438 L 21.085938 12.203125 C 21.628906 10.023438 21.152344 7.71875 19.84375 5.933594 L 19.859375 5.925781 L 19.53125 5.539062 C 19.527344 5.535156 19.523438 5.53125 19.519531 5.527344 C 19.453125 5.445312 19.382812 5.367188 19.3125 5.289062 C 19.222656 5.191406 19.132812 5.097656 19.046875 5.011719 L 16.183594 2.21875 L 15.476562 2.644531 L 13.722656 0.933594 C 19.082031 1.765625 23.199219 6.410156 23.199219 12 C 23.199219 14.898438 22.09375 17.542969 20.28125 19.53125 Z M 20.214844 18"/>
</svg>

<svg xmlns="http://www.w3.org/2000/svg" width="32" height="32" viewBox="0 0 24 24">
    <path d="M24 12C24 5.652 19.043.441 12.797.031l-.004-.004-.148-.007h-.004C12.43.008 12.215 0 12 0c-.305 0-.605.016-.906.04-.043 0-.09.003-.133.007C7 .39 3.586 2.66 1.66 5.918a11.775 11.775 0 0 0-.828 1.703c-.017.035-.028.066-.044.102a13.193 13.193 0 0 0-.3.89l-.075.246h.004A12.087 12.087 0 0 0 0 12c0 3.336 1.367 6.355 3.57 8.531v.008l.16.152c.055.051.114.102.172.153.024.023.047.047.07.066.122.11.243.215.368.32.023.016.043.036.066.051.13.11.258.211.395.313.015.011.035.023.05.039.141.101.282.203.422.3.016.008.028.02.043.028.145.098.297.195.446.289.015.008.027.012.039.02.152.093.304.183.46.27.016.003.028.01.044.019.152.086.308.164.468.242.016.008.036.015.055.027.152.07.305.14.461.207.027.012.05.024.078.035.149.059.297.121.446.176l.109.04c.14.05.281.097.426.144.047.015.09.03.136.043a7.94 7.94 0 0 0 .575.16c.125.035.254.062.382.09.067.015.13.03.196.043a25.047 25.047 0 0 0 .586.102c.12.019.242.03.367.046.07.008.144.02.219.027.132.012.265.02.398.032l.195.011c.2.012.399.016.598.016a9.953 9.953 0 0 0 .8-.031c.13-.008.255-.016.38-.028.082-.007.164-.02.242-.027.113-.016.23-.027.344-.047.082-.012.16-.023.242-.039l.336-.058c.078-.016.152-.036.23-.051.114-.024.23-.051.344-.078l.21-.059c.118-.031.24-.062.36-.102.059-.015.121-.035.18-.054.129-.043.258-.086.383-.133.05-.016.101-.035.148-.055.137-.05.274-.101.406-.16l.118-.047c.144-.062.285-.129.43-.195.027-.012.054-.027.081-.04.153-.073.301-.151.45-.23l.05-.027c.157-.086.313-.176.465-.27.012-.003.02-.011.028-.015a9.58 9.58 0 0 0 .468-.3c.004-.005.008-.005.012-.009.156-.105.313-.215.465-.328 0-.004.004-.004.004-.004.152-.117.304-.234.453-.355.191-.16.383-.324.566-.496l.137-.125-.004-.012A11.958 11.958 0 0 0 24 12zm-3.691.008l-.196.793a8144.05 8144.05 0 0 0-14.992 2.683c.223-.55.426-1.011.582-1.351l3.254-.91 1.902.32c.02.004.043.008.067.008.191 0 .36-.14.394-.332a.405.405 0 0 0-.328-.465l-1.316-.223.375-.469a.402.402 0 0 0-.063-.562.402.402 0 0 0-.562.063l-.719.898-3.187.894-.848-.746c1.52-.714 4.031-1.78 6.676-2.902 2.98-1.266 6.058-2.57 7.773-3.41a6.732 6.732 0 0 1 1.188 5.71zm-.793 8.289a11.205 11.205 0 0 1-2.66 1.793l-.02.012c-.152.07-.3.14-.457.207-.027.011-.055.02-.082.03-.133.06-.266.11-.402.161l-.13.047c-.12.043-.242.086-.363.125-.058.015-.113.035-.168.05-.113.036-.226.067-.336.098l-.195.047c-.105.028-.215.051-.32.074l-.215.047c-.102.02-.207.04-.309.055-.078.012-.152.027-.226.039-.106.016-.211.027-.32.04-.07.007-.145.019-.22.023-.116.011-.234.02-.355.027-.062.004-.125.012-.187.015a12.954 12.954 0 0 1-1.102 0c-.062-.003-.12-.011-.183-.015-.121-.008-.243-.016-.364-.027a32.928 32.928 0 0 1-.543-.067c-.07-.008-.136-.023-.207-.035a5.038 5.038 0 0 1-.336-.059c-.062-.011-.125-.027-.191-.039-.113-.027-.23-.05-.344-.082-.058-.011-.113-.027-.172-.043-.12-.03-.242-.066-.363-.101l-.14-.047c-.133-.04-.262-.086-.391-.129-.035-.016-.07-.027-.106-.043a7.727 7.727 0 0 1-.418-.164c-.023-.008-.046-.02-.07-.027a15.676 15.676 0 0 1-.484-.22 11.442 11.442 0 0 1-2.692-1.827c.153-.711.36-1.469.614-2.262h14.355zM4.48 17.199c.09-.262.184-.531.29-.808.003-.012.007-.02.011-.032 2.301-.414 4.93-.886 7.446-1.336l6.07 2.176zm15.54-3.57l.152 3.394-6.363-2.285c2.414-.43 4.625-.824 6.21-1.11zm-1.446-7.957c-1.726.832-4.676 2.082-7.539 3.297-.473.199-.937.398-1.394.594l6.484-6.286 2.363 2.309c.032.027.059.059.086.086zM7.672 10.355c-.02.02-.031.043-.047.067-1.469.633-2.738 1.191-3.605 1.613L3 11.137l10.309-6.242zm-4.586-.207l-1.758-1.55.012-.028c.082-.261.176-.515.277-.765.012-.028.024-.055.031-.078.106-.254.22-.5.34-.739.016-.035.035-.066.051-.101C3.79 3.504 7.2 1.18 11.043.844c.043-.004.086-.008.129-.008a9.715 9.715 0 0 1 1.281-.023l2.32 2.261zM.8 12c0-.875.101-1.727.293-2.543l1.277 1.125-.719.434 2.243 1.972 1.035.914c-.2.434-.457 1.036-.735 1.75l-.047.121a29.224 29.224 0 0 0-.359.973c-.082.238-.164.48-.246.73L3.375 18h.848c-.172.55-.32 1.082-.446 1.594A11.143 11.143 0 0 1 .801 12zm19.414 6h.8l-.21-4.68.172-.672.109-.445a7.548 7.548 0 0 0-1.242-6.27l.015-.007-.328-.387-.011-.012c-.067-.082-.137-.16-.207-.238a9.3 9.3 0 0 0-.266-.277l-2.863-2.793-.707.426L13.723.934c5.359.832 9.476 5.476 9.476 11.066 0 2.898-1.105 5.543-2.918 7.531zm0 0"/>
</svg>
